X:1
T:In quelle trine morbide - Manon Lescaut
T:In quelle trine morbide - Manon Lescaut
T:Giacomo Puccini
T:Solo di Manon (Soprano)
T:by IMSLP
T:by IMSLP
T:by IMSLP
T:by IMSLP
C:Giacomo puccini
Z:Solo di Manon
Z:by IMSLP
%%score ( 1 2 ) { ( 3 5 ) | ( 4 6 ) }
L:1/8
Q:1/4=90
M:2/4
K:Eb
V:1 treble nm="Voice"
V:2 treble 
V:3 treble nm="Piano"
V:5 treble 
V:4 bass 
V:6 bass 
V:1
"^Lento" z4 | z4 | z4 | z4 | z4 ||[M:4/4][Q:1/4=84]"^Moderato con moto""^Voice"!p! (e4 d c B c | %6
w: |||||In quel\- le tri\- ne|
 dc B4) (G B | G6 F B | F4 E2) (E3/2 E/ | B3!<(! B c d B c | d4- d)!<)! z (B3/2 d/ | %11
w: mor\- bi\- de nell' al\-|co\- va do\-|ra\- ta v'èun si\-|len\- zio,~un~ ge\- li\- do mor\-|tal _ v'è~un si\-|
"^ritenuto molto   _   _   _   _   _   _    a tempo" f3 F !tenuto!F !tenuto!G !tenuto!F !tenuto!G | %12
w: len\- zio,~un fred\- do che m'ag\-|
 F4 F2- F) z |!p! (_g4 f e _d e | (fe) _d3) (B B d | B4 B B A _d | A4 _G) G G G | %17
w: ghiac\- cia! *|Ed io che m'e roav\-|vez\-- * za au\- na ca\-|rez\- za vo\- lut\- tu\-|o\- sa di labbra ar\-|
 (F=G)!<(! =A B (cd) e c | f3 d !breath!g3 e!<)! | %19
w: den\-- * ti e d'in\- fuo\- ca\- te|brac\-- * cia or|
!f!"^poco allarg-" (!>!b4 !breath!!fermata!f2)!p! (3(e"^a tempo" d c) | B2 B2- B z z2 || %21
w: ho _ tut\- t'al tra|co\- sa! _|
[K:Gb][M:2/4]!p!"^Lo stesso movimento" d2 d3/2 d/ | d2 d2 | d4 | d2 z2 | (B2 B3/2 B/ | B2 e2 | e4 | %28
w: O mia di\-|mo\- rau|mi\-|le,|tu mi ri\-|tor\- niin\-|nan\-|
 A2- A) z |"^poco allarg."!<(! c2 d3/2 e/ | f2 !tenuto!b2!<)! |"^a tempo"{ab} (3agf e>f | g4- | %33
w: zi _|ga\- ia,~i\- so\-|la\- ta,|bian\-- * ~- * *|ca|
 (3g"^senza rall." A B (3c d e | (3F E D (G2- | (3GAB){cd} c z/ (B/ |!>(! d4-) | %37
w: _ come un so\- gno gen\-|ti\- lee di pa\--|* ~- * cee d'a|mor!|
 d2- d!>)! !fermata!z |] %38
w: _ _|
V:2
 x4 | x4 | x4 | x4 | x4 ||[M:4/4] x8 | x8 | x8 | x8 | x8 | x8 | x8 | x8 | x8 | x8 | x8 | x8 | %17
 x4 c d x2 | x8 | x8 | x8 ||[K:Gb][M:2/4] x4 | x4 | x4 | x4 | x4 | x4 | x4 | x4 | x4 | x4 | x4 | %32
 x4 | x4 | x4 | (3GA B x2 | x4 | x4 |] %38
V:3
!p! z4 | z4 |"_dim." z4 |!>(! z4 | z4!>)! ||[M:4/4] z!pp! [Beg]2 [Beg]2 [Beg]2 [Beg]- | %6
w: ||||||
 [Beg] [Beg]2 [Beg]2 [Beg]2 [Beg]- | [Beg] [dgb]2 [dgb]2 [dgb]2 [dfb]- | %8
w: ||
 [dfb] [fgb]2 [fgb]2 [egb]2 [egb]- |!<(! [egb] [dfb]2 [dfb]2 [egc']2 [egc']- | %10
w: ||
 [egc']!<)!!f! [dfbd']2 [dfbd']2!pp! [Bd=eb]2 [Bdeb]- | [Bdeb] [FBd]2 [FBd]2 [EGd]2 [EGc] | %12
w: ||
 z [B,DFc]2 [DFBd]2 [FBdf]2 [Bdfb] | z [_g_b]2 [gb] z4 | z2 z [_gb]2 [gb] z2 | %15
w: |||
 z [_cf]2 [cf]2 [cf]!pp! z2 | z [B_d]2 [Bd] z [Bd]2 [Bd] | %17
w: ||
 ([Ff][=G=g][=A=a]!<(![Bb] [cc'][=d=d'][ee'][cc']) | (([ff']3 [dd'])) (([gg']3 [ee']))!<)! | %19
w: ||
!f!"_poco allarg-" (!>!!^![bb']4 !breath!!fermata!f2)!p! (3([ee']"_a tempo"[dd'][cc']) | %20
w: |
!<(! [Bb] [B,DFB]2 [DFBd]2 [FBdf]2 [Bdfb]!<)! ||[K:Gb][M:2/4]!pp! ([df']2 [ee']>[gg'] | %22
w: ||
 [bb']2 [gg']2- | (3[gg'][ff'][ee'] [dd']>[ee']) | [ff']4- | (3([ff'][ee'][dd'] [cc']>[dd']) | %26
w: ||||
 [ee']4- | (3([ee'][dd'][cc'] [Bb]>[cc']) | [dd']4 |!<(! [cc']2 [dd']>[ee'] | [ff']2 [bb']2!<)! | %31
w: |||||
{a'b'} (3[aa'][gg'][ff'] [ee']>[ff'] | [gg']4- | [gg'] z z2 | F2 (3(GAB) | %35
w: ||||
 [EGc] z .[CDF] !fermata!z |!>(! [G,B,DG]2 [B,DGB]2 | [DGBd]2 !fermata![GBdg]2!>)! |] %38
w: ||* lunga|
V:4
 z (!tenuto!_G,!tenuto!G,!tenuto!G, | F,2 E,2) | (_G,, A,,2 =A,, | B,,4- | B,,4) || %5
[M:4/4][K:treble] z [EG]2 [EG]2 [EG]2 [EG]- | [EG] [EG]2 [EG]2 [EG]2 [EG]- | %7
 [EG] [GAB]2 [GAB]2 [FAB]2 [FAB]- | [FAB] [FGB]2 [FGB]2 [EGB]2 [EGB]- | %9
 [EGB] [DFB]2 [DFB]2 [CEGc]2 [CEGc]- | [CEGc] [B,DFB]2 [B,DFB]2 [G,D=E]2 [G,DE]- | %11
"^ritenuto molto  _   _   _   _   __   _ a tempo" [G,D=E][K:bass] [G,B,D]2 [G,B,D]2 [F,G,B,]2 [F,=A,] | %12
 [B,,F,]3 (D, F,B,DF) |[K:treble]!pp! z [B_d]2 [Bd] z4 | z2 z [_GB]2 [GB] z2 | %15
 z [_CF]2 [CF]2 [CF] z2 | z [B,_D]2 [B,D] z [B,D]2 [B,D] | %17
[K:bass] [F,,F,] [F,B,=D]2 [F,B,D] [E,,E,] [=A,CF]2 [A,CF] | %18
 [D,,D,] [B,DF]2 [B,DF] [C,,C,] [B,EG]2 [B,EG] | %19
 !>![F,,,F,,][K:treble] !^![DFB]2 !^![B,DG]2 !^!!fermata![G,B,D][K:bass] [F,=A,E] z | %20
 [B,,,F,,B,,]8 ||[K:Gb][M:2/4][K:treble] !tenuto![B,DG]2 !tenuto![B,DG]2 | %22
 !tenuto![B,DG]2 !tenuto![B,DG]2 | !tenuto![A,CG]2 !tenuto![A,CG]2 | %24
 !tenuto![A,CF]2 !tenuto![A,CF]2 | !tenuto![G,B,F]2 !tenuto![G,B,F]2 | %26
 !tenuto![G,B,E]2 !tenuto![G,B,E]2 |[K:bass] !tenuto![F,A,E]2 !tenuto![F,A,E]2 | %28
 !tenuto![F,A,D]2 !tenuto![F,A,D]2 |"^poco allarg." !tenuto![E,G,C]2 !tenuto![E,G,C]2 | %30
 !tenuto![D,F,C]2 [C,F,D]2 |"^a tempo" [B,,D,A,]2 [B,,D,B,]2 | [E,B,D]2 [E,B,D]2 | %33
 !arpeggio!!>![A,,E,C] z z2 |!p! [D,C]2 [E,B,]2 | A,, z [D,,D,] !fermata!z |!pp! [G,,,D,,G,,]4- | %37
 !fermata![G,,,D,,G,,]4 |] %38
V:5
 x4 | x4 | x4 | x4 | x4 ||[M:4/4] x8 | x8 | x8 | x8 | x8 | x8 | x8 | x8 | %13
 [_g_g']4 ([_Bf'][ee'][_d_d'][ee']) | [ff'][ee'] [_d_d']4 ([Bb][dd']) | [Bb]6 ([Ab][_d_d']) | %16
 [Aa]4 [_G_g]4 | x8 | x8 | x8 | x8 ||[K:Gb][M:2/4] x4 | x4 | x4 | x4 | x4 | x4 | x4 | x4 | x4 | %30
 x4 | x4 | x4 | x4 | (3FEE G2 | x4 | x4 | x4 |] %38
V:6
 x4 | x4 | x4 | x4 | x4 ||[M:4/4][K:treble] x8 | x8 | x8 | x8 | x8 | x8 | x[K:bass] x7 | x8 | %13
[K:treble] _G4 (FE_DE) | (FE _D4) (B,D) | B,6 (A,_D) | A,4 _G,4 |[K:bass] x8 | x8 | %19
 x[K:treble] x5[K:bass] x2 | x8 ||[K:Gb][M:2/4][K:treble] x4 | x4 | x4 | x4 | x4 | x4 | %27
[K:bass] x4 | x4 | x4 | x4 | x4 | x4 | x4 | x4 | x4 | x4 | x4 |] %38

